logos/flow.svg

<?xml version="1.0" encoding="UTF-8"?>
<svg width="256px" height="267px" viewBox="0 0 256 267" version="1.1" xmlns="http://www.w3.org/2000/svg" preserveAspectRatio="xMidYMid">
    <title>Flow</title>
    <g>
        <polygon fill="#FFCA20" opacity="0.7" points="237.300227 115.091771 148.489503 26.2916065 237.300227 26.2916065"></polygon>
        <polygon fill="#FFCA20" opacity="0.7" points="86.287152 0 136.631883 0 175.108435 38.465993 86.287152 38.465993"></polygon>
        <path d="M89.1697257,88.8212827 L0.359001856,0 L107.140936,0 L107.140936,88.8107239 L89.1697257,88.8212827 Z M167.189276,177.621448 L256,266.432172 L167.189276,266.432172 L167.189276,177.621448 Z" fill="#FFCF39" opacity="0.9"></path>
        <path d="M107.140936,177.632007 L18.3407713,88.8107239 L107.151495,88.8107239 L107.151495,177.621448 L107.140936,177.632007 Z M202.783254,132.682862 L131.985976,61.8433491 L202.814931,61.8433491 L202.783254,132.682862 Z M211.061415,258.16457 L130.518292,177.632007 L211.061415,177.632007 L211.061415,258.16457 Z" fill="#FFE490" opacity="0.7"></path>
        <polygon fill="#FCBC7C" opacity="0.9" points="107.140936 70.7444834 36.3964529 0 107.140936 0"></polygon>
        <polygon fill="#F9A040" opacity="0.8" points="130.877294 177.621448 219.688018 266.432172 130.877294 266.432172"></polygon>
        <polygon fill="#F9A040" opacity="0.7" points="220.765024 213.07816 132.070448 124.383584 220.765024 124.383584"></polygon>
        <polygon fill="#FFCF39" opacity="0.9" points="131.985976 61.8433491 219.719695 149.577067 131.985976 149.577067"></polygon>
        <polygon fill="#FFC737" opacity="0.7" points="107.140936 266.083729 0 158.921675 107.140936 158.921675"></polygon>
    </g>
</svg>

<svg preserveAspectRatio="xMidYMid" viewBox="0 0 256 267" xmlns="http://www.w3.org/2000/svg">
  <path fill="#FFCA20" d="m237.3 115.092-88.81-88.8h88.81z" opacity=".7"/>
  <path fill="#FFCA20" d="M86.287 0h50.345l38.476 38.466h-88.82z" opacity=".7"/>
  <path fill="#FFCF39" d="M89.17 88.821.359 0h106.782v88.81l-17.971.011Zm78.02 88.8L256 266.432h-88.81v-88.81Z" opacity=".9"/>
  <path fill="#FFE490" d="m107.14 177.632-88.8-88.821h88.811v88.81l-.01.011Zm95.643-44.95-70.797-70.839h70.829l-.032 70.84Zm8.278 125.483-80.543-80.533h80.543v80.533Z" opacity=".7"/>
  <path fill="#FCBC7C" d="M107.14 70.744 36.397 0h70.745z" opacity=".9"/>
  <path fill="#F9A040" d="m130.877 177.621 88.811 88.811h-88.81z" opacity=".8"/>
  <path fill="#F9A040" d="m220.765 213.078-88.695-88.694h88.695z" opacity=".7"/>
  <path fill="#FFCF39" d="m131.986 61.843 87.734 87.734h-87.734z" opacity=".9"/>
  <path fill="#FFC737" d="M107.14 266.084 0 158.922h107.14z" opacity=".7"/>
</svg>
